app/dist/common/images/lifan-technology-group.svg

<svg height="18" viewBox="0 0 18 18" width="18" xmlns="http://www.w3.org/2000/svg" xmlns:xlink="http://www.w3.org/1999/xlink"><linearGradient id="a" gradientUnits="userSpaceOnUse" x1="14.31" x2="9.31" y1="4.52" y2="4.52"><stop offset="0" stop-color="#fff324"/><stop offset="1" stop-color="#ed6201"/></linearGradient><linearGradient id="b" gradientUnits="userSpaceOnUse" x1="10.96" x2="1.53" y1="3.66" y2="11.77"><stop offset=".5" stop-color="#0457a9"/><stop offset=".84" stop-color="#00a0e9"/></linearGradient><path d="m0 9a9 9 0 1 1 18 0 9 9 0 0 1 -18 0z" fill="#f0f3fa"/><path d="m10.5 4h3.5l-.5 1h-3.5z" fill="url(#a)"/><path d="m8.97 14h-4.97l2.67-8.13c.35-1.01 1.4-1.87 2.37-1.87h.96l-3 8h1.69l.81-2h2.47l-.64 2.13c-.33 1.01-1.4 1.87-2.36 1.87zm4.03-7h-2.27l-.73 2h2.27z" fill="url(#b)"/></svg>

<!-- by TradingView --><svg width="18" height="18" viewBox="0 0 18 18" xmlns="http://www.w3.org/2000/svg"><path d="M0 9a9 9 0 1 1 18 0A9 9 0 0 1 0 9Z" fill="#F0F3FA"/><path d="M10.5 4H14l-.5 1H10l.5-1Z" fill="url(#aginc0kzf)"/><path d="M8.97 14H4l2.67-8.13C7.02 4.86 8.07 4 9.04 4H10l-3 8h1.69l.81-2h2.47l-.64 2.13C11 13.14 9.93 14 8.97 14ZM13 7h-2.27L10 9h2.27L13 7Z" fill="url(#bginc0kzf)"/><defs><linearGradient id="aginc0kzf" x1="14.31" y1="4.52" x2="9.31" y2="4.52" gradientUnits="userSpaceOnUse"><stop stop-color="#FFF324"/><stop offset="1" stop-color="#ED6201"/></linearGradient><linearGradient id="bginc0kzf" x1="10.96" y1="3.66" x2="1.53" y2="11.77" gradientUnits="userSpaceOnUse"><stop offset=".5" stop-color="#0457A9"/><stop offset=".84" stop-color="#00A0E9"/></linearGradient></defs></svg>
